svg/virtual-talk.svg

<?xml version="1.0" encoding="UTF-8"?>
<svg width="1200pt" height="1200pt" version="1.1" viewBox="0 0 1200 1200" xmlns="http://www.w3.org/2000/svg">
 <g>
  <path d="m533.85 935.36h132.09c8.6211 0 16.586-4.5977 20.898-12.066 4.3086-7.4648 4.3086-16.664 0-24.133-4.3125-7.4648-12.277-12.066-20.898-12.066h-132.09c-8.6211 0-16.586 4.6016-20.898 12.066-4.3086 7.4688-4.3086 16.668 0 24.133 4.3125 7.4688 12.277 12.066 20.898 12.066zm0-27.941h132.09c2.1016 0 3.8086 1.707 3.8086 3.8086 0 2.1055-1.707 3.8125-3.8086 3.8125h-132.09c-2.1016 0-3.8086-1.707-3.8086-3.8125 0-2.1016 1.707-3.8086 3.8086-3.8086z"/>
  <path d="m598.98 308.03c6.6016 0 12.934-2.6211 17.602-7.293 4.668-4.668 7.293-11 7.293-17.602 0-6.6016-2.625-12.934-7.293-17.602-4.668-4.668-11-7.293-17.602-7.293s-12.934 2.625-17.602 7.293c-4.6719 4.668-7.293 11-7.293 17.602 0.011718 6.5977 2.6406 12.922 7.3047 17.59 4.668 4.6641 10.992 7.2891 17.59 7.3047zm0-29.414c2.3242 0.24609 4.0898 2.207 4.0898 4.5469 0 2.3359-1.7656 4.3008-4.0898 4.5469-1.2891 0.13672-2.5781-0.28125-3.5391-1.1484-0.96484-0.86719-1.5156-2.1055-1.5156-3.3984 0-1.2969 0.55078-2.5352 1.5156-3.4023 0.96094-0.86719 2.25-1.2812 3.5391-1.1445z"/>
  <path d="m827.55 435.04c-6.5898 0-12.91 2.6172-17.57 7.2773-4.6562 4.6562-7.2734 10.977-7.2734 17.566 0 6.5859 2.6172 12.906 7.2734 17.566 4.6602 4.6562 10.98 7.2773 17.57 7.2773 6.5859 0 12.906-2.6211 17.566-7.2773 4.6562-4.6602 7.2734-10.98 7.2734-17.566 0-6.5898-2.6172-12.91-7.2734-17.566-4.6602-4.6602-10.98-7.2773-17.566-7.2773zm0 29.363c-1.832 0-3.4805-1.1016-4.1797-2.7891-0.69922-1.6914-0.3125-3.6367 0.98047-4.9297 1.293-1.293 3.2383-1.6797 4.9297-0.98047 1.6875 0.69922 2.7891 2.3477 2.7891 4.1797 0 2.4961-2.0234 4.5195-4.5195 4.5195z"/>
  <path d="m907.42 435.04c-6.5898 0-12.91 2.6172-17.566 7.2773-4.6602 4.6562-7.2773 10.977-7.2773 17.566 0 6.5859 2.6172 12.906 7.2773 17.566 4.6562 4.6562 10.977 7.2773 17.566 7.2773 6.5898 0 12.906-2.6211 17.566-7.2773 4.6602-4.6602 7.2773-10.98 7.2773-17.566 0-6.5898-2.6172-12.91-7.2773-17.566-4.6602-4.6602-10.977-7.2773-17.566-7.2773zm0 29.363c-1.8281 0-3.4766-1.1016-4.1797-2.7891-0.69922-1.6914-0.3125-3.6367 0.98047-4.9297 1.293-1.293 3.2383-1.6797 4.9297-0.98047 1.6875 0.69922 2.7891 2.3477 2.7891 4.1797 0 2.4961-2.0234 4.5195-4.5195 4.5195z"/>
  <path d="m987.28 435.04c-6.5898 0-12.906 2.6172-17.566 7.2773-4.6602 4.6562-7.2773 10.977-7.2773 17.566 0 6.5859 2.6172 12.906 7.2773 17.566 4.6602 4.6562 10.977 7.2773 17.566 7.2773s12.91-2.6211 17.566-7.2773c4.6602-4.6602 7.2773-10.98 7.2773-17.566 0-6.5898-2.6172-12.91-7.2773-17.566-4.6562-4.6602-10.977-7.2773-17.566-7.2773zm0 29.363c-1.8281 0-3.4766-1.1016-4.1758-2.7891-0.69922-1.6914-0.3125-3.6367 0.98047-4.9297 1.293-1.293 3.2383-1.6797 4.9258-0.98047 1.6914 0.69922 2.793 2.3477 2.793 4.1797 0 2.4961-2.0273 4.5195-4.5234 4.5195z"/>
  <path d="m1097.9 846v-296.8c18.875-25.977 29.16-57.203 29.418-89.312-0.30469-32.023-10.586-63.156-29.418-89.062v-77.578c-0.027344-18.492-7.3828-36.219-20.461-49.293-13.074-13.074-30.801-20.434-49.293-20.461h-858.59c-18.465 0.066407-36.152 7.4414-49.195 20.516-13.043 13.07-20.379 30.773-20.406 49.238v552.75l-99.984 0.003906v68.941c0.027344 16.32 6.5234 31.969 18.066 43.508 11.539 11.543 27.188 18.039 43.508 18.066h1077.1c16.285-0.082031 31.879-6.6016 43.379-18.137 11.496-11.535 17.965-27.152 17.992-43.438v-68.941zm-415.58-344.3-56.344 46.484c-3.3789 2.8242-4.5547 7.5039-2.9102 11.59 1.6406 4.0859 5.7305 6.6484 10.125 6.3438l80.625-6.0977 2.1328 2.5898c42.066 49.18 111.77 78.492 185.84 78.492v0.003906c15.867-0.007812 31.707-1.3516 47.352-4.0156v175.23h-281.96c-0.45703-87.992-57.562-162.07-135.24-184.57 24.965-14.492 42.246-39.277 47.215-67.715 4.9648-28.434-2.8906-57.613-21.465-79.711-18.57-22.098-45.961-34.855-74.828-34.855-28.863 0-56.254 12.758-74.828 34.855-18.57 22.098-26.426 51.277-21.461 79.711 4.9688 28.438 22.25 53.223 47.215 67.715-77.578 22.508-134.79 96.582-135.24 184.57h-49.637v-433.87h451.7c-15.57 24.27-23.941 52.453-24.133 81.289-0.050781 14.191 1.918 28.32 5.8438 41.965zm-35.562 310.62h-327.89c0.55859-94.496 73.922-171.21 164-171.21 90.078 0 163.44 76.715 164 171.21zm-163.9-191.54c-20.562 0.015625-40.293-8.1484-54.832-22.691-14.543-14.543-22.707-34.27-22.695-54.836 0.015624-20.562 8.2031-40.281 22.766-54.805 14.562-14.523 34.301-22.66 54.863-22.621 20.566 0.042969 40.273 8.2578 54.777 22.836 14.504 14.582 22.617 34.332 22.547 54.895-0.078124 20.492-8.2695 40.117-22.777 54.59-14.508 14.469-34.156 22.609-54.648 22.633zm232.43-262.66h-486.7v474.51h740.88v-199.86c4.6758-1.168 9.2969-2.5391 13.82-3.9609v217.19h-768.72v-501.24h513.12c-4.3711 4.3203-8.4844 8.7891-12.398 13.363zm288.32 263.37c27.613-11.023 52.758-27.43 73.973-48.266v272.77h-73.973zm-101.61-0.71094c-68.434 0-132.09-26.672-170.25-71.125l-5.2812-6.5586c-1.9258-2.3711-4.8203-3.7539-7.875-3.7578h-0.76172l-53.953 4.0625 36.934-30.484v0.003906c3.2852-2.6992 4.543-7.1602 3.1484-11.176-4.6602-13.504-7.0469-27.684-7.0625-41.965 0-88.754 92.008-160.95 205.15-160.95s204.95 72.293 204.95 161.05c0 88.754-92.059 160.89-205.2 160.89zm-781.73-327.54c0.011718-13.105 5.2266-25.672 14.492-34.938 9.2695-9.2695 21.836-14.48 34.941-14.496h858.59c13.109 0 25.684 5.2109 34.953 14.48 9.2695 9.2695 14.48 21.844 14.48 34.953v53.293c-41.355-41.355-104.76-67.926-175.79-67.926v0.003906c-53.418-0.60938-105.71 15.367-149.67 45.723h-558.04v521.66h-73.973zm1059.4 621.7c-0.015626 10.938-4.3672 21.422-12.098 29.156-7.7344 7.7305-18.219 12.082-29.156 12.098h-1077.1c-10.902-0.070312-21.336-4.4414-29.023-12.172-7.6914-7.7266-12.012-18.18-12.027-29.082v-48.621h1159.4z"/>
 </g>
</svg>

<?xml version="1.0" encoding="UTF-8" standalone="no"?>
<!DOCTYPE svg PUBLIC "-//W3C//DTD SVG 1.1//EN" "http://www.w3.org/Graphics/SVG/1.1/DTD/svg11.dtd">
<svg width="100%" height="100%" viewBox="0 0 1200 797" version="1.1" xmlns="http://www.w3.org/2000/svg" xmlns:xlink="http://www.w3.org/1999/xlink" xml:space="preserve" xmlns:serif="http://www.serif.com/" style="fill-rule:evenodd;clip-rule:evenodd;stroke-linejoin:round;stroke-miterlimit:2;">
    <g transform="matrix(1,0,0,1,0,-204)">
        <path d="M533.85,935.36L665.94,935.36C674.561,935.36 682.526,930.762 686.838,923.294C691.147,915.829 691.147,906.63 686.838,899.161C682.526,891.696 674.561,887.095 665.94,887.095L533.85,887.095C525.229,887.095 517.264,891.697 512.952,899.161C508.643,906.63 508.643,915.829 512.952,923.294C517.265,930.763 525.229,935.36 533.85,935.36ZM533.85,907.419L665.94,907.419C668.042,907.419 669.749,909.126 669.749,911.228C669.749,913.333 668.042,915.04 665.94,915.04L533.85,915.04C531.748,915.04 530.041,913.333 530.041,911.228C530.041,909.126 531.748,907.419 533.85,907.419Z" style="fill-rule:nonzero;"/>
        <path d="M598.98,308.03C605.582,308.03 611.914,305.409 616.582,300.737C621.25,296.069 623.875,289.737 623.875,283.135C623.875,276.533 621.25,270.201 616.582,265.533C611.914,260.865 605.582,258.24 598.98,258.24C592.378,258.24 586.046,260.865 581.378,265.533C576.706,270.201 574.085,276.533 574.085,283.135C574.097,289.733 576.726,296.057 581.39,300.725C586.058,305.389 592.382,308.014 598.98,308.03L598.98,308.03ZM598.98,278.616C601.304,278.862 603.07,280.823 603.07,283.163C603.07,285.499 601.304,287.464 598.98,287.71C597.691,287.847 596.402,287.429 595.441,286.561C594.476,285.694 593.925,284.456 593.925,283.163C593.925,281.866 594.476,280.628 595.441,279.761C596.402,278.894 597.691,278.479 598.98,278.616L598.98,278.616Z" style="fill-rule:nonzero;"/>
        <path d="M827.55,435.04C820.96,435.04 814.64,437.657 809.98,442.317C805.324,446.974 802.707,453.294 802.707,459.883C802.707,466.469 805.324,472.789 809.98,477.449C814.64,482.106 820.96,484.727 827.55,484.727C834.136,484.727 840.456,482.106 845.116,477.449C849.772,472.789 852.389,466.469 852.389,459.883C852.389,453.294 849.772,446.973 845.116,442.317C840.456,437.657 834.136,435.04 827.55,435.04ZM827.55,464.403C825.718,464.403 824.069,463.301 823.37,461.614C822.671,459.923 823.058,457.977 824.351,456.684C825.644,455.391 827.589,455.004 829.28,455.704C830.968,456.403 832.07,458.051 832.07,459.883C832.07,462.38 830.046,464.403 827.55,464.403L827.55,464.403Z" style="fill-rule:nonzero;"/>
        <path d="M907.42,435.04C900.83,435.04 894.51,437.657 889.854,442.317C885.194,446.974 882.577,453.294 882.577,459.883C882.577,466.469 885.194,472.789 889.854,477.449C894.51,482.106 900.831,484.727 907.42,484.727C914.01,484.727 920.326,482.106 924.986,477.449C929.646,472.789 932.263,466.469 932.263,459.883C932.263,453.294 929.646,446.973 924.986,442.317C920.326,437.657 914.009,435.04 907.42,435.04ZM907.42,464.403C905.592,464.403 903.943,463.301 903.24,461.614C902.541,459.923 902.928,457.977 904.221,456.684C905.514,455.391 907.459,455.004 909.15,455.704C910.838,456.403 911.94,458.051 911.94,459.883C911.94,462.38 909.916,464.403 907.42,464.403L907.42,464.403Z" style="fill-rule:nonzero;"/>
        <path d="M987.28,435.04C980.69,435.04 974.374,437.657 969.714,442.317C965.054,446.974 962.437,453.294 962.437,459.883C962.437,466.469 965.054,472.789 969.714,477.449C974.374,482.106 980.691,484.727 987.28,484.727C993.869,484.727 1000.19,482.106 1004.85,477.449C1009.51,472.789 1012.12,466.469 1012.12,459.883C1012.12,453.294 1009.51,446.973 1004.85,442.317C1000.19,437.657 993.869,435.04 987.28,435.04ZM987.28,464.403C985.452,464.403 983.803,463.301 983.104,461.614C982.405,459.923 982.792,457.977 984.085,456.684C985.378,455.391 987.323,455.004 989.01,455.704C990.702,456.403 991.803,458.051 991.803,459.883C991.803,462.38 989.776,464.403 987.28,464.403L987.28,464.403Z" style="fill-rule:nonzero;"/>
        <path d="M1097.9,846L1097.9,549.2C1116.78,523.223 1127.06,491.997 1127.32,459.888C1127.01,427.865 1116.73,396.732 1097.9,370.826L1097.9,293.248C1097.87,274.756 1090.52,257.029 1077.44,243.955C1064.37,230.881 1046.64,223.521 1028.15,223.494L169.556,223.494C151.091,223.56 133.404,230.935 120.361,244.01C107.318,257.08 99.982,274.783 99.955,293.248L99.955,845.998L-0.029,846.002L-0.029,914.943C-0.002,931.263 6.494,946.912 18.037,958.451C29.576,969.994 45.225,976.49 61.545,976.517L1138.64,976.517C1154.93,976.435 1170.52,969.915 1182.02,958.38C1193.52,946.845 1199.99,931.228 1200.02,914.942L1200.02,846.001L1097.9,846ZM682.32,501.7L625.976,548.184C622.597,551.008 621.421,555.688 623.066,559.774C624.706,563.86 628.796,566.422 633.191,566.118L713.816,560.02L715.949,562.61C758.015,611.79 827.719,641.102 901.789,641.102L901.789,641.106C917.656,641.098 933.496,639.754 949.141,637.09L949.141,812.32L667.181,812.32C666.724,724.328 609.619,650.25 531.941,627.75C556.906,613.258 574.187,588.473 579.156,560.035C584.12,531.601 576.265,502.422 557.691,480.324C539.121,458.226 511.73,445.469 482.863,445.469C454,445.469 426.609,458.227 408.035,480.324C389.465,502.422 381.609,531.601 386.574,560.035C391.542,588.473 408.824,613.258 433.789,627.75C356.211,650.258 298.999,724.332 298.549,812.32L248.912,812.32L248.912,378.45L700.612,378.45C685.042,402.72 676.671,430.903 676.479,459.739C676.428,473.93 678.397,488.059 682.322,501.704L682.32,501.7ZM646.868,812.32L318.868,812.32C319.427,717.824 392.79,641.11 482.868,641.11C572.946,641.11 646.308,717.825 646.868,812.32ZM482.858,620.78C462.296,620.796 442.565,612.632 428.026,598.089C413.483,583.546 405.319,563.819 405.331,543.253C405.347,522.691 413.534,502.972 428.097,488.448C442.659,473.925 462.398,465.788 482.96,465.827C503.526,465.87 523.233,474.085 537.737,488.663C552.241,503.245 560.354,522.995 560.284,543.558C560.206,564.05 552.015,583.675 537.507,598.148C522.999,612.617 503.351,620.757 482.859,620.781L482.858,620.78ZM715.288,358.12L228.588,358.12L228.588,832.63L969.468,832.63L969.468,632.77C974.144,631.602 978.765,630.231 983.288,628.809L983.288,845.999L214.568,845.999L214.568,344.759L727.688,344.759C723.317,349.079 719.204,353.548 715.29,358.122L715.288,358.12ZM1003.61,621.49C1031.22,610.467 1056.37,594.06 1077.58,573.224L1077.58,845.994L1003.61,845.994L1003.61,621.49ZM901.998,620.779C833.564,620.779 769.908,594.107 731.748,549.654L726.467,543.095C724.541,540.724 721.647,539.342 718.592,539.338L717.83,539.338L663.877,543.4L700.811,512.916L700.811,512.92C704.096,510.221 705.354,505.76 703.959,501.744C699.299,488.24 696.913,474.06 696.897,459.779C696.897,371.025 788.905,298.829 902.047,298.829C1015.19,298.829 1107,371.122 1107,459.879C1107,548.633 1014.94,620.769 901.797,620.769L901.998,620.779ZM120.268,293.239C120.28,280.134 125.495,267.567 134.76,258.301C144.03,249.032 156.596,243.821 169.701,243.805L1028.29,243.805C1041.4,243.805 1053.97,249.016 1063.24,258.285C1072.51,267.555 1077.72,280.129 1077.72,293.238L1077.72,346.531C1036.37,305.176 972.964,278.605 901.934,278.605L901.934,278.609C848.516,278 796.224,293.976 752.264,324.332L194.224,324.332L194.224,845.992L120.251,845.992L120.268,293.239ZM1179.67,914.939C1179.65,925.877 1175.3,936.361 1167.57,944.095C1159.84,951.826 1149.35,956.177 1138.41,956.193L61.314,956.193C50.412,956.123 39.978,951.752 32.291,944.021C24.6,936.294 20.279,925.841 20.264,914.939L20.264,866.318L1179.66,866.318L1179.67,914.939Z" style="fill-rule:nonzero;"/>
    </g>
</svg>
